src/actions/16/path-offset-dynamic.svg

<svg xmlns="http://www.w3.org/2000/svg" viewBox="0 0 16 16">
    <path d="M14 2A12 12 0 0 0 2 14h1A11 11 0 0 1 14 3V2zm0 6a6 6 0 0 0-6 6h1a5 5 0 0 1 5-5V8z" style="fill:currentColor;fill-opacity:1;stroke:none;color:#050505;opacity:.7"/>
    <path d="M6 6v4h4V6zm1 1h2v2H7Z" style="fill:currentColor;fill-opacity:1;stroke:none;color:#a0b6cb"/>
</svg>

<svg xmlns="http://www.w3.org/2000/svg" viewBox="0 0 16 16">
  <defs id="defs3051">
    <style type="text/css" id="current-color-scheme">
      .ColorScheme-Text {
        color:#363636;
      }
      .ColorScheme-Highlight {
        color:#a0b6cb;
      }
      </style>
  </defs>
  <path 
        style="fill:currentColor;fill-opacity:1;stroke:none"
        d="M 14 2 A 12.00001 12.00001 0 0 0 2 14 L 3 14 A 11 11 0 0 1 14 3 L 14 2 z M 14 8 A 6 6 0 0 0 8 14 L 9 14 A 5 5 0 0 1 14 9 L 14 8 z "
        class="ColorScheme-Text"
        />
  <path
        style="fill:currentColor;fill-opacity:1;stroke:none"
        d="m 6,6 0,4 4,0 0,-4 z M 7,7 9,7 9,9 7,9 Z"
        class="ColorScheme-Highlight"
      />
</svg>
